X:1
T:Fanny's Delight [1]
M:C|
L:1/8
B:John Walsh - Country Dances Selected (c. 1760, p. 8)
N:"As Perform'd at Court and All Publick Assemblies and Entertainments...Part I"
Z:AK/Fiddler's Companion
K:G
Bc|dBGB dBge|dBGB dBge|{e}d2 cB {d}c2 BA|BGAB AFED|
dBGB dBge|dBGB dBge|fafd ege^c|d4 D2:|
|:de|{g}=f2 ed {f}e2dc|{e}d2 cB A2 cd|{f}e2 dc {e}d2 cB|{d}c2 BA G2 Bc|
dBdB dBge|dBdB dBge|{e}d2 cB {d}c2 BA|G2D2 G,2:|]

